X:15
T:Reel 15
M:4/4
K:Emin
L:1/8
d|B>e (3ede BAFA|BGAF DEFA|Be (3ede BAFA| (3B^cd AG FDD:|d|eefa g2fg|afdf agfg|efga bgaf|defd Beez|efga bafd|defg afdf|ebge fgfe|egfe dBB|
